img/logo__color.svg

<svg width="118" height="41" viewBox="0 0 118 41" fill="none" xmlns="http://www.w3.org/2000/svg">
<g id="&#208;&#160;&#208;&#142;&#208;&#160;&#194;&#187;&#208;&#160;&#209;&#149;&#208;&#160;&#226;&#132;&#150;_1" clip-path="url(#clip0_261_9)">
<path id="Vector" d="M36.2238 0V-0.15H36.0738H34.7093H34.5593V0V31.7603L27.5607 -0.0322475L27.5348 -0.15H27.4143H26.0169H25.8303L25.8704 0.0322561L32.7808 31.4156L18.9192 -0.060455L18.8798 -0.15H18.782H17.2919H17.0619L17.1546 0.0604569L30.6758 30.7626L10.2994 -0.0826787L10.2549 -0.15H10.1742H8.54222H8.26337L8.41706 0.0826751L28.0877 29.8613L1.70093 -0.0991397L1.65614 -0.15H1.58836H0H-0.15V0V39.4111V39.5611H0H1.36457H1.51457V39.4111V7.65075L8.51308 39.4433L8.539 39.5611H8.65958H10.0596H10.2462L10.2061 39.3788L3.29587 7.99602L17.1546 39.4715L17.194 39.5611H17.2919H18.782H19.0119L18.9193 39.3506L5.40058 8.64845L25.7744 39.4938L25.8189 39.5611H25.8996H27.5316H27.8105L27.6568 39.3284L7.98618 9.54973L34.3729 39.5102L34.4177 39.5611H34.4855H36.0738H36.2238V39.4111V0Z" fill="#CFB895" stroke="#CFB895" stroke-width="0.3"/>
<path id="Vector_2" d="M48.4832 1.52588e-05H57.2164L79.0496 26.9194V1.52588e-05H80.2395V41H78.9349L49.6867 5.29279V39.4219H48.4968L48.4832 1.52588e-05Z" fill="white"/>
<path id="Vector_3" d="M85.2366 1.52588e-05H99.3517C110.347 1.52588e-05 116.3 3.71741 116.3 9.74227C116.3 14.7558 112.389 18.3593 106.095 19.3734V19.5985C113.41 20.2736 118 23.991 118 29.2838C118 35.4225 111.878 39.4219 100.146 39.4219H85.2366V1.52588e-05ZM99.6355 19.1483C105.304 19.1483 108.194 16.1061 108.194 10.1381C108.194 4.17021 105.192 1.12524 99.3517 1.12524H94.3055V19.1483H99.6355ZM99.1798 38.2967C105.7 38.2967 109.046 35.2544 109.046 29.2838C109.046 23.3728 105.585 20.2167 99.0679 20.2167H94.3055V38.2967H99.1798Z" fill="white"/>
</g>
<defs>
<clipPath id="clip0_261_9">
<rect width="118" height="41" fill="white"/>
</clipPath>
</defs>
</svg>

<svg width="118" height="41" fill="none" xmlns="http://www.w3.org/2000/svg"><g clip-path="url(#a)"><path d="M36.224 0v-.15H34.559v31.91L27.561-.032l-.026-.118H25.83l.04.182 6.91 31.384L18.92-.06l-.04-.09h-1.818l.093.21 13.52 30.703L10.3-.083l-.044-.067H8.263l.154.233 19.67 29.778L1.702-.099 1.656-.15H-.15v39.711H1.515V7.651l6.998 31.792.026.118h1.707l-.04-.182-6.91-31.383 13.859 31.475.039.09h1.818l-.093-.21L5.401 8.648l20.373 30.846.045.067h1.992l-.154-.233L7.987 9.55l26.386 29.96.045.051h1.806V0Z" fill="#CFB895" stroke="#CFB895" stroke-width=".3"/><path d="M48.483 0h8.733L79.05 26.92V0h1.19v41h-1.305L49.687 5.293v34.129h-1.19L48.483 0ZM85.237 0h14.115C110.347 0 116.3 3.717 116.3 9.742c0 5.014-3.911 8.617-10.205 9.631v.226C113.41 20.274 118 23.99 118 29.284c0 6.139-6.122 10.138-17.854 10.138h-14.91V0Zm14.398 19.148c5.669 0 8.559-3.042 8.559-9.01s-3.002-9.013-8.842-9.013h-5.047v18.023h5.33Zm-.455 19.149c6.52 0 9.866-3.043 9.866-9.013 0-5.911-3.461-9.067-9.978-9.067h-4.763v18.08h4.875Z" fill="#fff"/></g><defs><clipPath id="a"><path fill="#fff" d="M0 0h118v41H0z"/></clipPath></defs></svg>
